X: 600
T: Yenjie kuxiufang
%%abc-version 2.0
%%abcx-abcm2ps-target-version 5.9.1 (29 Sep 2008)
%%abc-creator hum2abc beta
%%abcx-conversion-date 2013/10/02 07:52:30
%%abc-edited-by Helmut Schaffrath
%%humdrum-veritas 3189647085
%%humdrum-veritas-data 2610581015
%%continueall 1
%%barnumbers 0
L: 1/8
M: 2/4
K: F
c dc2 [I:setbarnb 1]| 
d f A G | 
c c A c | 
G F D C | 
G2A G | 
F G/ F/D2 | 
f f d A | 
c4 |]  



